public/logos/golang-mono.svg

<svg width="256" height="256" viewBox="0 0 256 256" fill="none" xmlns="http://www.w3.org/2000/svg">
  <path d="M29.282 111.04C28.836 111.04 28.7245 110.816 28.9475 110.479L31.2889 107.453C31.5119 107.117 32.0694 106.893 32.5153 106.893H72.3196C72.7656 106.893 72.8771 107.229 72.6541 107.566L70.7586 110.479C70.5356 110.816 69.9781 111.152 69.6437 111.152L29.282 111.04Z" fill="currentColor" />
  <path d="M12.446 121.351C12 121.351 11.8885 121.127 12.1115 120.79L14.4529 117.764C14.6759 117.428 15.2334 117.204 15.6794 117.204H66.5218C66.9677 117.204 67.1907 117.54 67.0792 117.876L66.1873 120.566C66.0758 121.015 65.6298 121.239 65.1838 121.239L12.446 121.351Z" fill="currentColor" />
  <path d="M39.4281 131.662C38.9821 131.662 38.8706 131.325 39.0936 130.989L40.6546 128.187C40.8776 127.851 41.3236 127.515 41.7696 127.515H64.0688C64.5148 127.515 64.7378 127.851 64.7378 128.299L64.5148 130.989C64.5148 131.438 64.0688 131.774 63.7343 131.774L39.4281 131.662Z" fill="currentColor" />
  <path d="M155.161 109.023C148.137 110.816 143.343 112.161 136.43 113.954C134.758 114.402 134.646 114.514 133.197 112.833C131.524 110.928 130.298 109.695 127.956 108.574C120.932 105.1 114.131 106.109 107.775 110.255C100.194 115.187 96.2913 122.472 96.4028 131.55C96.5143 140.516 102.647 147.913 111.455 149.145C119.037 150.154 125.392 147.464 130.409 141.748C131.413 140.516 132.305 139.171 133.42 137.602C129.406 137.602 124.388 137.602 111.901 137.602C109.559 137.602 109.002 136.145 109.782 134.239C111.232 130.765 113.908 124.937 115.469 122.023C115.803 121.351 116.584 120.23 118.256 120.23C123.942 120.23 144.904 120.23 158.841 120.23C158.618 123.256 158.618 126.282 158.172 129.308C156.945 137.377 153.935 144.774 149.029 151.275C141.001 161.922 130.521 168.534 117.253 170.328C106.326 171.785 96.1798 169.655 87.2601 162.931C79.0094 156.654 74.3265 148.361 73.1 138.05C71.6506 125.834 75.2185 114.85 82.5772 105.212C90.4935 94.789 100.974 88.1766 113.796 85.823C124.277 83.9177 134.312 85.1505 143.343 91.3147C149.252 95.2373 153.489 100.617 156.276 107.117C156.945 108.126 156.499 108.686 155.161 109.023Z" fill="currentColor" />
  <path d="M192.067 171C181.921 170.776 172.666 167.862 164.862 161.137C158.283 155.422 154.158 148.137 152.82 139.507C150.813 126.842 154.269 115.635 161.851 105.66C169.99 94.9011 179.802 89.2973 193.07 86.9438C204.443 84.9264 215.147 86.0471 224.847 92.6596C233.655 98.7116 239.118 106.893 240.568 117.652C242.463 132.782 238.115 145.111 227.746 155.646C220.387 163.155 211.356 167.862 200.986 169.991C197.976 170.552 194.966 170.664 192.067 171ZM218.603 125.722C218.491 124.265 218.491 123.144 218.268 122.023C216.261 110.928 206.115 104.652 195.523 107.117C185.154 109.471 178.464 116.083 176.011 126.618C174.004 135.36 178.241 144.214 186.269 147.8C192.401 150.49 198.534 150.154 204.443 147.128C213.251 142.533 218.045 135.36 218.603 125.722Z" fill="currentColor" />
</svg>

<svg width="256" height="256" viewBox="0 0 256 256" fill="none" xmlns="http://www.w3.org/2000/svg">
  <path d="M29.282 111.04c-.446 0-.558-.224-.334-.561l2.34-3.026c.224-.336.781-.56 1.227-.56H72.32c.446 0 .557.336.334.673l-1.895 2.913c-.223.337-.78.673-1.115.673l-40.362-.112ZM12.446 121.351c-.446 0-.557-.224-.335-.561l2.342-3.026c.223-.336.78-.56 1.226-.56h50.843c.446 0 .669.336.557.672l-.892 2.69c-.111.449-.557.673-1.003.673l-52.738.112ZM39.428 131.662c-.446 0-.557-.337-.334-.673l1.56-2.802c.224-.336.67-.672 1.116-.672h22.299c.446 0 .669.336.669.784l-.223 2.69c0 .449-.446.785-.78.785l-24.307-.112ZM155.161 109.023c-7.024 1.793-11.818 3.138-18.731 4.931-1.672.448-1.784.56-3.233-1.121-1.673-1.905-2.899-3.138-5.241-4.259-7.024-3.474-13.825-2.465-20.181 1.681-7.581 4.932-11.484 12.217-11.372 21.295.111 8.966 6.244 16.363 15.052 17.595 7.582 1.009 13.937-1.681 18.954-7.397 1.004-1.232 1.896-2.577 3.011-4.146h-21.519c-2.342 0-2.899-1.457-2.119-3.363 1.45-3.474 4.126-9.302 5.687-12.216.334-.672 1.115-1.793 2.787-1.793h40.585c-.223 3.026-.223 6.052-.669 9.078-1.227 8.069-4.237 15.466-9.143 21.967-8.028 10.647-18.508 17.259-31.776 19.053-10.927 1.457-21.073-.673-29.993-7.397-8.25-6.277-12.934-14.57-14.16-24.881-1.45-12.216 2.119-23.2 9.477-32.838 7.916-10.423 18.397-17.035 31.219-19.389 10.481-1.905 20.516-.672 29.547 5.492 5.909 3.922 10.146 9.302 12.933 15.802.669 1.009.223 1.569-1.115 1.906Z" fill="currentColor"/>
  <path d="M192.067 171c-10.146-.224-19.401-3.138-27.205-9.863-6.579-5.715-10.704-13-12.042-21.63-2.007-12.665 1.449-23.872 9.031-33.847 8.139-10.759 17.951-16.363 31.219-18.716 11.373-2.018 22.077-.897 31.777 5.716 8.808 6.052 14.271 14.233 15.721 24.992 1.895 15.13-2.453 27.459-12.822 37.994-7.359 7.509-16.39 12.216-26.76 14.345-3.01.561-6.02.673-8.919 1.009Zm26.536-45.278c-.112-1.457-.112-2.578-.335-3.699-2.007-11.095-12.153-17.371-22.745-14.906-10.369 2.354-17.059 8.966-19.512 19.501-2.007 8.742 2.23 17.596 10.258 21.182 6.132 2.69 12.265 2.354 18.174-.672 8.808-4.595 13.602-11.768 14.16-21.406Z" fill="currentColor"/>
</svg>
